X: 1
T: Dresden, The
M: 4/4
L: 1/8
R: reel
K: Bmix
GA Bd _d=d BG|AB AG _GA _d=d|B=G EB GE Bc|AB cB AG _Gd|
=GA Bc _d=d BG|AB AG _GA _d=d|gd Bd cA _GA|=GB A_G =G2 G_G|
=GA Bd _d=d BG|AB AG _GA _d=d|B=G EB GE Bc|AB cB AG _Gd|
=GA Bc _d=d BG|AB AG _GA _d=d|gd Bd cA _GA|=GB A_G =G2 gf|
ed cB Ac Fc|dB ga bg af|gd cf d2 cB|AB cB AG _Gd|
=Gg ab af dg|fd cA Bd cA|GB AG _GA D_G|=GD B,A, G,2 gf|
ed cB Ac Fc|dB ga bg af|gd cf d2 cB|AB cB AG _Gd|
=Gg ab af dg|fd cA Bd cA|GB AG _GA D_G|=GD B,A, G,3z|
